svgs/thin/glasses.svg

<svg xmlns="http://www.w3.org/2000/svg" viewBox="0 0 576 512"><!--! Font Awesome Pro 6.3.0 by @fontawesome - https://fontawesome.com License - https://fontawesome.com/license (Commercial License) Copyright 2023 Fonticons, Inc. --><path d="M560.4 211.8l-45.19-131.8c-12.38-36.15-51.31-55.99-88.91-45.02l-20.53 6c-4.25 1.25-6.656 5.688-5.438 9.934c1.25 4.25 5.687 6.656 9.938 5.438l20.53-6c29.19-8.527 59.66 6.781 69.28 34.84l40.23 117.3c9.605 30.03 15.24 52.98 17.83 78.17c-4.531-3.703-9.555-6.859-15.37-8.785c-31.78-10.52-64.39-15.86-96.91-15.86c-38.02 0-75.49 7.438-111.4 22.11c-5.613 2.301-10.31 5.867-14.47 9.965L256 288C251.8 283.9 247.1 280.5 241.5 278.2c-35.87-14.68-73.34-22.11-111.4-22.11c-32.53 0-65.14 5.336-96.91 15.86c-5.812 1.926-10.84 5.082-15.37 8.785c2.586-25.18 8.223-48.14 17.83-78.17l40.23-117.3C85.56 57.17 116 41.86 145.2 50.39l20.53 6c4.25 1.219 8.688-1.188 9.938-5.438C176.9 46.7 174.5 42.27 170.3 41.02l-20.53-6C112.1 24.05 73.19 43.89 60.81 80.04L15.63 211.8C5.25 241.1 .0003 273.4 .0003 305.3l-.0002 63.96C.0002 430.3 50.26 480 111.9 480h43.12c58.11 0 107-45.02 111.4-102.5l3.859-51.59C270.9 318.1 269.1 310.8 266.3 304h43.31c-2.762 6.812-4.516 14.12-3.934 21.91l3.859 51.59C313.1 434.1 362.9 480 420.1 480h43.12c61.63 0 111.9-49.68 111.9-110.8l.0001-63.96C576 273.4 570.8 241.1 560.4 211.8zM250.5 376.3C246.7 425.5 204.8 464 155 464H111.8c-52.82 0-95.76-42.42-95.76-94.78c0 0 .0586-51.04 .0625-52.02c.1797-13.79 9.086-25.78 22.22-30.12c23.28-7.711 55.16-15.05 91.88-15.05c36.17 0 71.42 7.062 105.3 20.93c12.5 5.113 19.86 18.3 18.86 31.76L250.5 376.3zM464.2 464h-43.24c-49.82 0-91.72-38.51-95.46-87.7l-3.855-51.57c-1.008-13.46 6.355-26.65 18.86-31.76c33.88-13.86 69.13-20.93 105.3-20.93c36.72 0 68.6 7.34 91.88 15.05c13.13 4.344 22.04 16.33 22.22 30.12c.0039 .9805 .0625 52.02 .0625 52.02C560 421.6 517.1 464 464.2 464z"/></svg>

<svg xmlns="http://www.w3.org/2000/svg" viewBox="0 0 576 512"><!-- Font Awesome Pro 6.0.0-alpha2 by @fontawesome - https://fontawesome.com License - https://fontawesome.com/license (Commercial License) --><path d="M560.375 211.797C560.375 211.797 542.395 158.273 533.406 132.531C527.969 116.937 521.906 99.598 515.187 80.039C502.812 43.891 463.875 24.047 426.281 35.016L405.75 41.016C401.5 42.266 399.094 46.703 400.313 50.949C401.563 55.199 406 57.605 410.25 56.387L430.781 50.387C459.969 41.859 490.437 57.168 500.062 85.227L540.289 202.516C549.895 232.543 555.531 255.5 558.117 280.684C553.586 276.98 548.562 273.824 542.75 271.898C510.973 261.375 478.363 256.039 445.836 256.039C407.813 256.039 370.344 263.477 334.473 278.152C328.859 280.453 324.164 284.02 320 288.117V288H256V288.117C251.836 284.02 247.141 280.453 241.527 278.152C205.656 263.477 168.188 256.039 130.164 256.039C97.637 256.039 65.027 261.375 33.25 271.898C27.438 273.824 22.414 276.98 17.883 280.684C20.469 255.5 26.105 232.543 35.711 202.516L75.938 85.227C85.562 57.168 116.031 41.859 145.219 50.387L165.75 56.387C170 57.605 174.438 55.199 175.688 50.949C176.906 46.703 174.5 42.266 170.25 41.016L149.719 35.016C112.125 24.047 73.187 43.891 60.812 80.039C54.094 99.598 48.031 116.938 42.594 132.531C33.605 158.273 15.625 211.797 15.625 211.797C5.25 241.977 0 273.441 0 305.281V369.223C0 430.305 50.137 480 111.762 480H155.004C213.109 480 262.047 434.98 266.418 377.508L270.277 325.914C270.859 318.117 269.105 310.812 266.344 304H309.656C306.895 310.812 305.141 318.117 305.723 325.914L309.582 377.508C313.953 434.98 362.891 480 420.996 480H464.238C525.863 480 576 430.305 576 369.223V305.281C576 273.441 570.75 241.977 560.375 211.797ZM250.465 376.297C246.723 425.492 204.828 464 155.004 464H111.762C58.941 464 16 421.578 16 369.223C16 369.223 16.059 318.188 16.062 317.207C16.242 303.418 25.148 291.43 38.281 287.086C61.562 279.375 93.445 272.035 130.164 272.035C166.336 272.035 201.582 279.098 235.465 292.961C247.965 298.074 255.328 311.258 254.32 324.723L250.465 376.297ZM464.238 464H420.996C371.172 464 329.277 425.492 325.535 376.297L321.68 324.723C320.672 311.258 328.035 298.074 340.535 292.961C374.418 279.098 409.664 272.035 445.836 272.035C482.555 272.035 514.437 279.375 537.719 287.086C550.852 291.43 559.758 303.418 559.937 317.207C559.941 318.187 560 369.223 560 369.223C560 421.578 517.059 464 464.238 464Z"/></svg>
